lib/assets/images/appbar_main.svg

<svg width="40" height="40" viewBox="0 0 40 40" fill="none" xmlns="http://www.w3.org/2000/svg">
<path d="M11.4554 14.8485C10.7878 14.8485 10.3077 14.2069 10.496 13.5664L11.1224 11.4358C11.3727 10.5846 12.1539 10 13.0412 10H32.9994C33.6669 10 34.1471 10.6416 33.9588 11.2821L33.3323 13.4126C33.0821 14.2639 32.3009 14.8485 31.4136 14.8485H11.4554Z" fill="black"/>
<path d="M10.8138 17.5758C9.92651 17.5758 9.14532 18.1604 8.89504 19.0116L8.26863 21.1422C8.08032 21.7826 8.56044 22.4242 9.228 22.4242H29.1862C30.0735 22.4242 30.8547 21.8396 31.105 20.9884L31.7314 18.8578C31.9197 18.2174 31.4396 17.5758 30.772 17.5758H10.8138Z" fill="black"/>
<path d="M7.00061 30C6.33306 30 5.85294 29.3584 6.04124 28.7179L6.66766 26.5874C6.91794 25.7361 7.69913 25.1515 8.5864 25.1515H28.5446C29.2122 25.1515 29.6923 25.7931 29.504 26.4336L28.8776 28.5642C28.6273 29.4154 27.8461 30 26.9588 30H7.00061Z" fill="black"/>
</svg>

<svg width="40" height="40" fill="none" xmlns="http://www.w3.org/2000/svg"><path d="M11.455 14.848a1 1 0 0 1-.959-1.282l.626-2.13A2 2 0 0 1 13.042 10h19.957a1 1 0 0 1 .96 1.282l-.627 2.13a2 2 0 0 1-1.918 1.436H11.455zM10.814 17.576a2 2 0 0 0-1.919 1.436l-.626 2.13a1 1 0 0 0 .959 1.282h19.958a2 2 0 0 0 1.919-1.436l.626-2.13a1 1 0 0 0-.959-1.282H10.814zM7 30a1 1 0 0 1-.959-1.282l.627-2.13a2 2 0 0 1 1.918-1.437h19.959a1 1 0 0 1 .959 1.283l-.626 2.13A2 2 0 0 1 26.958 30H7.002z" fill="#000"/></svg>
